actions/22x22-dark/speed-low.svg

<svg xmlns="http://www.w3.org/2000/svg" viewBox="0 0 22 22">
 <defs id="defs3051">
   <style type="text/css" id="current-color-scheme">
     .ColorScheme-Text {
       color:#f2f2f2;
     }
     </style>
 </defs>
   <path
      style="fill:currentColor;fill-opacity:1;stroke:none"
      d="m11 14.458489a2.4 2.4 0 0 0 2.4-2.399999c0-.896-.488-1.680001-1.2-2.0880006l-7.7680004-4.4959994 4.4240002 7.664c.4000001.783999 1.2080002 1.319999 2.1440002 1.319999m0-10.399999c-1.4480002 0-2.8000002.3999999-3.9760002 1.0559999l1.6800001.9680001c.696-.272 1.4960001-.424 2.2960001-.424a6.4000001 6.4000001 0 0 1 6.4 6.4c0 1.767999-.712 3.368-1.872 4.519999h-.008c-.312.312-.312.816 0 1.128001.312.311999.824.311999 1.136.008 1.448-1.448 2.344-3.448001 2.344-5.656a8.0000001 8.0000001 0 0 0 -8-8m-8 8c0 2.207999.896 4.208 2.3439999 5.655999.3119999.304.816.304 1.1279999-.008.3120001-.312.3120001-.816 0-1.128001-1.16-1.159999-1.872-2.752-1.872-4.519999 0-.800001.152-1.6.432-2.3200002l-.9679998-1.6799988c-.664 1.1999998-1.064 2.544-1.064 4z"
      class="ColorScheme-Text" />
</svg>

<?xml version="1.0" encoding="UTF-8" standalone="no"?>
<svg
   xmlns:dc="http://purl.org/dc/elements/1.1/"
   xmlns:cc="http://creativecommons.org/ns#"
   xmlns:rdf="http://www.w3.org/1999/02/22-rdf-syntax-ns#"
   xmlns:svg="http://www.w3.org/2000/svg"
   xmlns="http://www.w3.org/2000/svg"
   xmlns:sodipodi="http://sodipodi.sourceforge.net/DTD/sodipodi-0.dtd"
   xmlns:inkscape="http://www.inkscape.org/namespaces/inkscape"
   version="1.1"
   width="22"
   height="22"
   viewBox="0 0 22 22"
   id="svg2"
   inkscape:version="0.91 r13725"
   sodipodi:docname="speed-low.svg">
  <metadata
     id="metadata10">
    <rdf:RDF>
      <cc:Work
         rdf:about="">
        <dc:format>image/svg+xml</dc:format>
        <dc:type
           rdf:resource="http://purl.org/dc/dcmitype/StillImage" />
        <dc:title></dc:title>
      </cc:Work>
    </rdf:RDF>
  </metadata>
  <defs
     id="defs8">
    <style
       id="current-color-scheme"
       type="text/css">
      .ColorScheme-Text {
        color:#f2f2f2;
      }
      </style>
  </defs>
  <sodipodi:namedview
     pagecolor="#ffffff"
     bordercolor="#666666"
     borderopacity="1"
     objecttolerance="10"
     gridtolerance="10"
     guidetolerance="10"
     inkscape:pageopacity="0"
     inkscape:pageshadow="2"
     inkscape:window-width="640"
     inkscape:window-height="480"
     id="namedview6"
     showgrid="false"
     inkscape:zoom="27.458333"
     inkscape:cx="5.5174507"
     inkscape:cy="12"
     inkscape:current-layer="svg2" />
  <path
     d="m 11,14.458489 a 2.4,2.4 0 0 0 2.4,-2.399999 c 0,-0.896 -0.488,-1.680001 -1.2,-2.0880006 L 4.4319996,5.47449 l 4.4240002,7.664 C 9.2559999,13.922489 10.064,14.458489 11,14.458489 M 11,4.05849 c -1.4480002,0 -2.8000002,0.3999999 -3.9760002,1.0559999 L 8.7039999,6.08249 C 9.3999999,5.81049 10.2,5.65849 11,5.65849 a 6.4000001,6.4000001 0 0 1 6.4,6.4 c 0,1.767999 -0.712,3.368 -1.872,4.519999 l -0.008,0 c -0.312,0.312 -0.312,0.816 0,1.128001 0.312,0.311999 0.824,0.311999 1.136,0.008 l 0,0 C 18.104,16.26649 19,14.266489 19,12.05849 a 8.0000001,8.0000001 0 0 0 -8,-8 m -8,8 c 0,2.207999 0.896,4.208 2.3439999,5.655999 l 0,0 c 0.3119999,0.304 0.816,0.304 1.1279999,-0.008 0.3120001,-0.312 0.3120001,-0.816 0,-1.128001 l 0,0 c -1.16,-1.159999 -1.872,-2.752 -1.872,-4.519999 0,-0.800001 0.152,-1.6 0.432,-2.3200002 L 4.064,8.05849 C 3.4,9.2584898 3,10.60249 3,12.05849 Z"
     id="path4"
     style="fill:#f2f2f2;fill-opacity:1"
     inkscape:connector-curvature="0" />
</svg>
